X:1
T:the Four Posts of the Bed
T:the Four Poster Bed
N:Played in Ireland, Scoland, Shetland and England
R:reel, polka
F:http://www.ibiblio.org/fiddlers/FOU_FOY.htm
M:C|
L:1/8
Q:220
S:John Doherty
R:polka
Z:Philippe Varlet
K:D
|:\
e2ef e2ef | edcB A2E2 | A2e2 f2fe |  g2fe f2a2  |
e2ef e2ef | edcB A2g2 | f2g2 e2c2 |1   d4 g3f  :|2 d4 d2Ad |
|:\
f2gf e2fg | abag fAde | f2gf e2fg | a2^gb a2Ad  |
f2gf e2fg | abag fAde | f2gf e2a2 |1   d4 d2Ad :|2 d4 g3f |
|:\
e2ef e2ef | edcB A2E2 | A2e2 z2e2 |  z2e2 z2e2  |
z2e2 e3f  | edcB e2eg | f2g2 e2c2 |  d4   g3f  :|
